X: 26525
T: Michael Ward
R: reel
M: 4/4
K: Eminor
D|E2 EF G2 AB|cBAG F>E D2|e2 dB c2BA|GFGA B4|
EFGA BABG|AGAF GFGE|d2G2d2B2|bagf g4|
f2 Bg f2d2|edef d2B2|BAGF G2A2|B4 z2||
fa|bagb agfa|g2 fe dBdB|g2 g/a/b GBGB|A2B2 e4|
g2 f/g/a gdBd|gdga bc'ba|g2 fe deBA|GFGA B4|
E2 EF GFGE|FEFG AGAF|GFGA BABG|A2B2 c4|
B2 eB cBAc|BAGB A2 GF|GFEG FEDF|B2 [B,2B2] E4||

